X:1
T:Game of Thrones theme
T:Composed by Ramin Djawadi Arranged by Monisieja
%%score 1 2 3
L:1/8
Q:1/4=175
M:6/8
K:Eb
V:1 treble nm="Violin" snm="Vln."
V:2 treble nm="Violin" snm="Vln."
V:3 treble nm="Violin" snm="Vln."
V:1
"^Adagio" z6 | z6 | z6 | z6 | z6 | z6 | z6 | z6 | G6 | C6 | EF G4 | C4 EF | D6- | D6- | D6- | D6 | %16
 F6 | B,6 | ED F4 | B,6 | ED C4- | C6- | C6- | C6 | G6 | C6 | EF G4 | C4 EF | D6- | D6- | D6- | %31
 D6 | F6 | B,6 | ED F4 | B,6 | ED C4- | C6- | C6- | C6 | g6 | c6 | ef g4 | c4 ef | d6- | d6- | %46
 d6- | d6 | f6 | B6 | d3 e3 | d3 B3 | c6- | c6- | c6- | c6 | c'6- | c'6 | b6- | b6 | a6- | a6 | %62
 g6- | g6 | A6- | A6 | e6 | f6 | g6- | g6- | g6- | g6 | c'6- | c'6 | b6- | b6 | a6- | a6 | g6- | %79
 g6 | A6- | A6 | e6 | d6 | c6- | c6- | c6- | c6 | z6 | z6 | z6 | z6 |] %92
V:2
 G2 C2 EF | G2 C2 EF | G2 C2 EF | G2 C2 EF | G2 C2 =EF | G2 C2 =EF | G2 C2 =EF | G2 C2 =EF | C6- | %9
 C6- | C6- | C6 | D2 G,2 B,C | D2 G,2 B,C | D2 G,2 B,C | D2 G,2 B,C | B,6- | B,6- | B,6- | B,6 | %20
 C2 G,2 A,B, | C2 G,2 A,B, | C2 G,2 A,B, | C2 G,2 A,B, | C6- | C6- | C6- | C6 | D2 G,2 B,C | %29
 D2 G,2 B,C | D2 G,2 B,C | D2 G,2 B,C | B,6- | B,6- | B,6- | B,6 | C2 G,2 A,B, | C2 G,2 A,B, | %38
 C2 G,2 A,B, | C2 G,2 A,B, | G2 C2 EF | G2 C2 EF | G2 C2 EF | G2 C2 EF | D2 G,2 B,C | D2 G,2 B,C | %46
 D2 G,2 B,C | D2 G,2 B,C | d2 F2 Bc | d2 F2 Bc | d2 F2 Bc | d2 G2 B2 | c2 G2 AB | c2 G2 AB | %54
 c2 G2 AB | c2 G2 AB | c2 E2 AB | c2 E2 Ac | B2 E2 GA | B2 E2 GB | A2 C2 FG | A2 C2 FA | G2 C2 EF | %63
 G2 C2 EF | E2 A,2 CD | E2 A,2 C2 | E6 | F6 | G6- | G6- | G6- | G6 | cEA cEA | cEA cEA | BEG BEG | %75
 BEG BEG | ACF ACF | ACF ACF | G2 C2 EF | G2 C2 EF | E2 A,2 CD | E2 A,2 C2 | A,6 | G,6 | C6- | %85
 C6- | C6- | C6 | z6 | z6 | z6 | z6 |] %92
V:3
 C6- | C6- | C6- | C6- | C6- | C6- | C6- | C6 | E6- | E6- | E6- | E6 | B,6- | B,6- | B,6- | B,6 | %16
 D6- | D6- | D6- | D6 | G,6- | G,6- | G,6- | G,6 | E6- | E6- | E6- | E6 | B,6- | B,6- | B,6- | %31
 B,6 | D6- | D6- | D6- | D6 | G,6- | G,6- | G,6- | G,6 | [Cc]2 [Cc] [Cc][Cc][Cc] | %41
 [Cc]2 [Cc] [Cc][Cc][Cc] | [Cc]2 [Cc] [Cc][Cc][Cc] | [Cc]2 [Cc] [Cc][Cc][Cc] | %44
 [Dd]2 [Dd] [Dd][Dd][Dd] | [Dd]2 [Dd] [Dd][Dd][Dd] | [Dd]2 [Dd] [Dd][Dd][Dd] | %47
 [Dd]2 [Dd] [Dd][Dd][Dd] | [Ff]2 [Ff] [Ff][Ff][Ff] | [Dd]2 [Dd] [Dd][Dd][Dd] | %50
 [Dd]2 [Dd] [Dd][Dd][Dd] | [Dd]2 [Dd] [Dd][Dd][Dd] | [Cc]2 [Cc] [Cc][Cc][Cc] | %53
 [Cc]2 [Cc] [Cc][Cc][Cc] | [Cc]2 [Cc] [Cc][Cc][Cc] | [Cc]2 [Cc] [Cc][Cc][Cc] | c3 E3 | A3 c3 | %58
 B3 E3 | G3 B3 | A3 C3 | F3 A3 | G3 C3 | E3 F3 | E3 A,3 | E3 C3 | E2 A,2 CD | D2 G,2 B,2 | %68
 C2 G,2 A,B, | C2 G,2 A,B, | C2 G,2 A,B, | C2 G,2 A,B, | c3 E3 | A3 c3 | B3 E3 | G3 B3 | A3 C3 | %77
 F3 A3 | G3 C3 | E3 F3 | E3 A,3 | E3 C3 | C6 | B,6 | c2 G2 AB | c2 G2 AB | c2 G2 AB | c2 G2 AB | %88
"^pizz." c'2 g2 ab | c'2 g2 ab | c'2 g2 ab | c' z z4 |] %92

